app/img/prev-arrow.svg

<svg width="109" height="25" viewBox="0 0 109 25" fill="none" xmlns="http://www.w3.org/2000/svg">
<path d="M0.292892 11.2929C-0.0976296 11.6834 -0.0976295 12.3166 0.292893 12.7071L6.65685 19.0711C7.04738 19.4616 7.68054 19.4616 8.07107 19.0711C8.46159 18.6805 8.46159 18.0474 8.07107 17.6569L2.41422 12L8.07107 6.34315C8.46159 5.95262 8.46159 5.31946 8.07107 4.92894C7.68054 4.53841 7.04738 4.53841 6.65685 4.92894L0.292892 11.2929ZM41 11L1 11L1 13L41 13L41 11Z" fill="#C4C4C4"/>
<path d="M75.0703 19H72.6973V8.25098H69.5244V19H67.1338V6.15039H75.0703V19ZM86.1516 10.1055C86.1516 11.4707 85.8059 12.5195 85.1145 13.252C84.4289 13.9785 83.4357 14.3418 82.135 14.3418H81.5373V19H79.1467V6.15039H82.4074C84.9035 6.15039 86.1516 7.46875 86.1516 10.1055ZM81.5373 12.2676H81.9943C82.5803 12.2676 83.0168 12.1064 83.3039 11.7842C83.591 11.4619 83.7346 10.9346 83.7346 10.2021C83.7346 9.52832 83.6027 9.03027 83.3391 8.70801C83.0754 8.37988 82.6682 8.21582 82.1174 8.21582H81.5373V12.2676ZM95.3695 19H89.5775V6.15039H95.3695V8.21582H91.9682V11.2744H95.1234V13.3486H91.9682V16.9082H95.3695V19ZM108.402 22.6738H106.082V19H100.316V22.6738H97.9957V16.8906H98.7516C99.9586 13.6855 100.732 10.1055 101.072 6.15039H106.943V16.8906H108.402V22.6738ZM104.552 16.8906V8.25098H103.093C102.947 9.6748 102.71 11.1543 102.381 12.6895C102.059 14.2188 101.678 15.6191 101.239 16.8906H104.552Z" fill="#C4C4C4"/>
</svg>

<svg width="109" height="25" fill="none" xmlns="http://www.w3.org/2000/svg"><path d="M.293 11.293a1 1 0 000 1.414l6.364 6.364a1 1 0 001.414-1.414L2.414 12l5.657-5.657A1 1 0 006.657 4.93L.293 11.293zM41 11H1v2h40v-2zM75.07 19h-2.373V8.251h-3.173V19h-2.39V6.15h7.936V19zm11.082-8.895c0 1.366-.346 2.415-1.037 3.147-.686.726-1.68 1.09-2.98 1.09h-.598V19h-2.39V6.15h3.26c2.496 0 3.745 1.319 3.745 3.955zm-4.615 2.163h.457c.586 0 1.023-.162 1.31-.484.287-.322.43-.85.43-1.582 0-.674-.131-1.172-.395-1.494-.264-.328-.67-.492-1.222-.492h-.58v4.052zM95.37 19h-5.791V6.15h5.791v2.066h-3.4v3.058h3.154v2.075h-3.155v3.56h3.401V19zm13.033 3.674h-2.32V19h-5.766v3.674h-2.32V16.89h.756c1.207-3.205 1.98-6.785 2.32-10.74h5.871v10.74h1.459v5.783zm-3.85-5.783V8.25h-1.459a41.32 41.32 0 01-.712 4.439 34.98 34.98 0 01-1.142 4.2h3.313z" fill="#C4C4C4"/></svg>
